X:1
T:The Old Oaken Bucket
M:3/4
L:1/8
K:F
 C2| A2 G3 F| A4 GF| G4 FG| A2 F3 F| F4 ED| C2 F2 A2| G4 FE| F4 C2|\
 A2 G3 F| A4 GF| G4 FG| A2 F3 F| F4 ED| C2 F3 A| G4 FE| F4 C2| G4 GA|\
 B3 c2 B| A4 AB| c2 A3 c| c4 BA| A4 GF| F3 E2 F| G4 C2| A4 GF| A2 G3 F|\
 G2 F2 G2| A2 F3 F| F4 ED| C2 F3 A| G4 FE| F4||
